static/img/kroki/b1b3aa14923aac9d4098db7995fce8bd.svg

<?xml version="1.0" encoding="us-ascii" standalone="no"?><svg xmlns="http://www.w3.org/2000/svg" xmlns:xlink="http://www.w3.org/1999/xlink" contentStyleType="text/css" height="645px" preserveAspectRatio="none" style="width:403px;height:645px;" version="1.1" viewBox="0 0 403 645" width="403px" zoomAndPan="magnify"><defs/><g><!--class onelogin_region--><g id="elem_onelogin_region"><rect codeLine="22" fill="#3D176E" height="39.7891" id="onelogin_region" rx="2.5" ry="2.5" style="stroke:#000D19;stroke-width:0.5;" width="176" x="78" y="599.55"/><ellipse cx="93" cy="619.4445" fill="#ADD1B2" rx="11" ry="11" style="stroke:#181818;stroke-width:1.0;"/><path d="M95.9688,625.0852 Q95.3906,625.382 94.75,625.5227 Q94.1094,625.6789 93.4063,625.6789 Q90.9063,625.6789 89.5781,624.0383 Q88.2656,622.382 88.2656,619.257 Q88.2656,616.132 89.5781,614.4758 Q90.9063,612.8195 93.4063,612.8195 Q94.1094,612.8195 94.75,612.9758 Q95.4063,613.132 95.9688,613.4289 L95.9688,616.1477 Q95.3438,615.5695 94.75,615.3039 Q94.1563,615.0227 93.5313,615.0227 Q92.1875,615.0227 91.5,616.1008 Q90.8125,617.1633 90.8125,619.257 Q90.8125,621.3508 91.5,622.4289 Q92.1875,623.4914 93.5313,623.4914 Q94.1563,623.4914 94.75,623.2258 Q95.3438,622.9445 95.9688,622.3664 L95.9688,625.0852 Z " fill="#000000"/><text fill="#D9B8FF" font-family="Helvetica" font-size="17" lengthAdjust="spacing" textLength="134" x="112" y="625.3298">onelogin_region</text></g><!--class onelogin_resource--><g id="elem_onelogin_resource"><rect codeLine="24" fill="#3D176E" height="39.7891" id="onelogin_resource" rx="2.5" ry="2.5" style="stroke:#000D19;stroke-width:0.5;" width="194" x="7" y="438.76"/><ellipse cx="22" cy="458.6545" fill="#ADD1B2" rx="11" ry="11" style="stroke:#181818;stroke-width:1.0;"/><path d="M24.9688,464.2952 Q24.3906,464.592 23.75,464.7327 Q23.1094,464.8889 22.4063,464.8889 Q19.9063,464.8889 18.5781,463.2483 Q17.2656,461.592 17.2656,458.467 Q17.2656,455.342 18.5781,453.6858 Q19.9063,452.0295 22.4063,452.0295 Q23.1094,452.0295 23.75,452.1858 Q24.4063,452.342 24.9688,452.6389 L24.9688,455.3577 Q24.3438,454.7795 23.75,454.5139 Q23.1563,454.2327 22.5313,454.2327 Q21.1875,454.2327 20.5,455.3108 Q19.8125,456.3733 19.8125,458.467 Q19.8125,460.5608 20.5,461.6389 Q21.1875,462.7014 22.5313,462.7014 Q23.1563,462.7014 23.75,462.4358 Q24.3438,462.1545 24.9688,461.5764 L24.9688,464.2952 Z " fill="#000000"/><text fill="#D9B8FF" font-family="Helvetica" font-size="17" lengthAdjust="spacing" textLength="152" x="41" y="464.5398">onelogin_resource</text></g><!--class region--><g id="elem_region"><rect codeLine="26" fill="#3D176E" height="39.7891" id="region" rx="2.5" ry="2.5" style="stroke:#000D19;stroke-width:0.5;" width="95" x="235.5" y="438.76"/><ellipse cx="250.5" cy="458.6545" fill="#ADD1B2" rx="11" ry="11" style="stroke:#181818;stroke-width:1.0;"/><path d="M253.4688,464.2952 Q252.8906,464.592 252.25,464.7327 Q251.6094,464.8889 250.9063,464.8889 Q248.4063,464.8889 247.0781,463.2483 Q245.7656,461.592 245.7656,458.467 Q245.7656,455.342 247.0781,453.6858 Q248.4063,452.0295 250.9063,452.0295 Q251.6094,452.0295 252.25,452.1858 Q252.9063,452.342 253.4688,452.6389 L253.4688,455.3577 Q252.8438,454.7795 252.25,454.5139 Q251.6563,454.2327 251.0313,454.2327 Q249.6875,454.2327 249,455.3108 Q248.3125,456.3733 248.3125,458.467 Q248.3125,460.5608 249,461.6389 Q249.6875,462.7014 251.0313,462.7014 Q251.6563,462.7014 252.25,462.4358 Q252.8438,462.1545 253.4688,461.5764 L253.4688,464.2952 Z " fill="#000000"/><text fill="#D9B8FF" font-family="Helvetica" font-size="17" lengthAdjust="spacing" textLength="53" x="269.5" y="464.5398">region</text></g><!--class resource--><g id="elem_resource"><rect codeLine="28" fill="#3D176E" height="310.7578" id="resource" rx="2.5" ry="2.5" style="stroke:#000D19;stroke-width:0.5;" width="227" x="169.5" y="7"/><ellipse cx="238.25" cy="26.8945" fill="#ADD1B2" rx="11" ry="11" style="stroke:#181818;stroke-width:1.0;"/><path d="M241.2188,32.5352 Q240.6406,32.832 240,32.9727 Q239.3594,33.1289 238.6563,33.1289 Q236.1563,33.1289 234.8281,31.4883 Q233.5156,29.832 233.5156,26.707 Q233.5156,23.582 234.8281,21.9258 Q236.1563,20.2695 238.6563,20.2695 Q239.3594,20.2695 240,20.4258 Q240.6563,20.582 241.2188,20.8789 L241.2188,23.5977 Q240.5938,23.0195 240,22.7539 Q239.4063,22.4727 238.7813,22.4727 Q237.4375,22.4727 236.75,23.5508 Q236.0625,24.6133 236.0625,26.707 Q236.0625,28.8008 236.75,29.8789 Q237.4375,30.9414 238.7813,30.9414 Q239.4063,30.9414 240,30.6758 Q240.5938,30.3945 241.2188,29.8164 L241.2188,32.5352 Z " fill="#000000"/><text fill="#D9B8FF" font-family="Helvetica" font-size="17" lengthAdjust="spacing" textLength="71" x="263.75" y="32.7798">resource</text><line style="stroke:#000D19;stroke-width:0.5;" x1="170.5" x2="395.5" y1="46.7891" y2="46.7891"/><text fill="#D9B8FF" font-family="sans-serif" font-size="14" font-weight="bold" lengthAdjust="spacing" textLength="29" x="180.5" y="68.7842">age</text><text fill="#D9B8FF" font-family="sans-serif" font-size="14" lengthAdjust="spacing" textLength="66" x="209.5" y="68.7842">: duration</text><text fill="#D9B8FF" font-family="sans-serif" font-size="14" font-weight="bold" lengthAdjust="spacing" textLength="43" x="180.5" y="95.0811">atime</text><text fill="#D9B8FF" font-family="sans-serif" font-size="14" lengthAdjust="spacing" textLength="70" x="223.5" y="95.0811">: datetime</text><text fill="#D9B8FF" font-family="sans-serif" font-size="14" font-weight="bold" lengthAdjust="spacing" textLength="43" x="180.5" y="121.3779">ctime</text><text fill="#D9B8FF" font-family="sans-serif" font-size="14" lengthAdjust="spacing" textLength="70" x="223.5" y="121.3779">: datetime</text><text fill="#D9B8FF" font-family="sans-serif" font-size="14" font-weight="bold" lengthAdjust="spacing" textLength="14" x="180.5" y="147.6748">id</text><text fill="#D9B8FF" font-family="sans-serif" font-size="14" lengthAdjust="spacing" textLength="48" x="194.5" y="147.6748">: string</text><text fill="#D9B8FF" font-family="sans-serif" font-size="14" font-weight="bold" lengthAdjust="spacing" textLength="33" x="180.5" y="173.9717">kind</text><text fill="#D9B8FF" font-family="sans-serif" font-size="14" lengthAdjust="spacing" textLength="48" x="213.5" y="173.9717">: string</text><text fill="#D9B8FF" font-family="sans-serif" font-size="14" font-weight="bold" lengthAdjust="spacing" textLength="90" x="180.5" y="200.2686">last_access</text><text fill="#D9B8FF" font-family="sans-serif" font-size="14" lengthAdjust="spacing" textLength="66" x="270.5" y="200.2686">: duration</text><text fill="#D9B8FF" font-family="sans-serif" font-size="14" font-weight="bold" lengthAdjust="spacing" textLength="90" x="180.5" y="226.5654">last_update</text><text fill="#D9B8FF" font-family="sans-serif" font-size="14" lengthAdjust="spacing" textLength="66" x="270.5" y="226.5654">: duration</text><text fill="#D9B8FF" font-family="sans-serif" font-size="14" font-weight="bold" lengthAdjust="spacing" textLength="48" x="180.5" y="252.8623">mtime</text><text fill="#D9B8FF" font-family="sans-serif" font-size="14" lengthAdjust="spacing" textLength="70" x="228.5" y="252.8623">: datetime</text><text fill="#D9B8FF" font-family="sans-serif" font-size="14" font-weight="bold" lengthAdjust="spacing" textLength="43" x="180.5" y="279.1592">name</text><text fill="#D9B8FF" font-family="sans-serif" font-size="14" lengthAdjust="spacing" textLength="48" x="223.5" y="279.1592">: string</text><text fill="#D9B8FF" font-family="sans-serif" font-size="14" font-weight="bold" lengthAdjust="spacing" textLength="34" x="180.5" y="305.4561">tags</text><text fill="#D9B8FF" font-family="sans-serif" font-size="14" lengthAdjust="spacing" textLength="171" x="214.5" y="305.4561">: dictionary[string, string]</text></g><!--reverse link onelogin_resource to onelogin_region--><g id="link_onelogin_resource_onelogin_region"><path codeLine="40" d="M118.0284,495.5766 C129.9484,526.0966 146.56,568.66 158.49,599.22 " fill="none" id="onelogin_resource-backto-onelogin_region" style="stroke:#FFAF37;stroke-width:2.0;"/><polygon fill="none" points="111.48,478.81,112.4396,497.7594,123.6173,493.3938,111.48,478.81" style="stroke:#FFAF37;stroke-width:2.0;"/></g><!--reverse link region to onelogin_region--><g id="link_region_onelogin_region"><path codeLine="41" d="M258.2119,493.3006 C235.7219,523.8206 202.68,568.66 180.16,599.22 " fill="none" id="region-backto-onelogin_region" style="stroke:#FFAF37;stroke-width:2.0;"/><polygon fill="none" points="268.89,478.81,253.3817,489.7413,263.0421,496.86,268.89,478.81" style="stroke:#FFAF37;stroke-width:2.0;"/></g><!--reverse link resource to region--><g id="link_resource_region"><path codeLine="42" d="M283,335.85 C283,384.14 283,413.37 283,438.68 " fill="none" id="resource-backto-region" style="stroke:#FFAF37;stroke-width:2.0;"/><polygon fill="none" points="283,317.85,277,335.85,289,335.85,283,317.85" style="stroke:#FFAF37;stroke-width:2.0;"/></g><!--SRC=[XP9DQm8n48Rl_eg0jwM2Lbgrz6A5qbwarDvAaJ6PNOExoJB9Lkp7Vs_YMeaRFsx9-pwPTsR8KWfaM9Hsmmei5aYcPLPIbK1Gi36HNazqhecrqnJI_g1fFcfbBm9JA90zOVw9Ld9e4czBoLSAZM7NWVK0V9MHhfIeori2PPo5oWRK90TZnjQIN5GMWsR4Q35CqoRPBDhkYzxW5YDCaq3Q8TrkL_H6JUHYrDcvzyHCVY7hXKkRQejHcr74bZhRfIU29gD1__sJFRw0459bx2RGNkkUI24TwBCb2BtsT0gv2MECHK9jDoLEegbmD1Jfu2ZyV0hcVdDCAynr9jMSC9DQiU_MR-mONH77m8lWW4aIo319xfYe2Ap3l69bKMjWqP-TnezeKdZ1k4-eCdTrunmABilEWNFtnHi9MwSgVQs6Knp9KL1B-y8MihgYvFuPqEQzzgvsp8SRDTx8_K-dqsdkiBNRpYdpu6sj_W40]--></g></svg>

<svg xmlns="http://www.w3.org/2000/svg" width="403" height="645" viewBox="0 0 403 645"><rect width="176" height="39.789" x="78" y="599.55" fill="#3D176E" rx="2.5" ry="2.5" style="stroke:#000d19;stroke-width:.5"/><circle cx="93" cy="619.444" r="11" fill="#ADD1B2" style="stroke:#181818;stroke-width:1"/><path d="M95.969 625.085q-.578.297-1.219.438-.64.156-1.344.156-2.5 0-3.828-1.64-1.312-1.657-1.312-4.782t1.312-4.781q1.328-1.657 3.828-1.657.703 0 1.344.157.656.156 1.219.453v2.719q-.625-.579-1.219-.844-.594-.281-1.219-.281-1.344 0-2.031 1.078-.687 1.062-.687 3.156t.687 3.172q.688 1.062 2.031 1.062.625 0 1.219-.265.594-.282 1.219-.86z"/><text x="112" y="625.33" fill="#D9B8FF" font-family="Helvetica" font-size="17" textLength="134">onelogin_region</text><rect width="194" height="39.789" x="7" y="438.76" fill="#3D176E" rx="2.5" ry="2.5" style="stroke:#000d19;stroke-width:.5"/><circle cx="22" cy="458.654" r="11" fill="#ADD1B2" style="stroke:#181818;stroke-width:1"/><path d="M24.969 464.295q-.578.297-1.219.438-.64.156-1.344.156-2.5 0-3.828-1.64-1.312-1.657-1.312-4.782t1.312-4.781q1.328-1.656 3.828-1.656.703 0 1.344.156.656.156 1.219.453v2.719q-.625-.579-1.219-.844-.594-.281-1.219-.281-1.343 0-2.031 1.078-.687 1.062-.687 3.156t.687 3.172q.688 1.062 2.031 1.062.625 0 1.219-.265.594-.281 1.219-.86z"/><text x="41" y="464.54" fill="#D9B8FF" font-family="Helvetica" font-size="17" textLength="152">onelogin_resource</text><rect width="95" height="39.789" x="235.5" y="438.76" fill="#3D176E" rx="2.5" ry="2.5" style="stroke:#000d19;stroke-width:.5"/><circle cx="250.5" cy="458.654" r="11" fill="#ADD1B2" style="stroke:#181818;stroke-width:1"/><path d="M253.469 464.295q-.578.297-1.219.438-.64.156-1.344.156-2.5 0-3.828-1.64-1.312-1.657-1.312-4.782t1.312-4.781q1.328-1.656 3.828-1.656.703 0 1.344.156.656.156 1.219.453v2.719q-.625-.579-1.219-.844-.594-.281-1.219-.281-1.344 0-2.031 1.078-.687 1.062-.687 3.156t.687 3.172q.688 1.062 2.031 1.062.625 0 1.219-.265.594-.281 1.219-.86z"/><text x="269.5" y="464.54" fill="#D9B8FF" font-family="Helvetica" font-size="17" textLength="53">region</text><rect width="227" height="310.758" x="169.5" y="7" fill="#3D176E" rx="2.5" ry="2.5" style="stroke:#000d19;stroke-width:.5"/><circle cx="238.25" cy="26.895" r="11" fill="#ADD1B2" style="stroke:#181818;stroke-width:1"/><path d="M241.219 32.535q-.578.297-1.219.438-.64.156-1.344.156-2.5 0-3.828-1.64-1.312-1.657-1.312-4.782t1.312-4.781q1.328-1.656 3.828-1.656.703 0 1.344.156.656.156 1.219.453v2.719q-.625-.578-1.219-.844-.594-.281-1.219-.281-1.344 0-2.031 1.078-.687 1.062-.687 3.156t.687 3.172q.688 1.062 2.031 1.062.625 0 1.219-.265.594-.281 1.219-.86z"/><text x="263.75" y="32.78" fill="#D9B8FF" font-family="Helvetica" font-size="17" textLength="71">resource</text><path d="M170.5 46.789h225" style="stroke:#000d19;stroke-width:.5"/><text x="180.5" y="68.784" fill="#D9B8FF" font-family="sans-serif" font-size="14" font-weight="bold" textLength="29">age</text><text x="209.5" y="68.784" fill="#D9B8FF" font-family="sans-serif" font-size="14" textLength="66">: duration</text><text x="180.5" y="95.081" fill="#D9B8FF" font-family="sans-serif" font-size="14" font-weight="bold" textLength="43">atime</text><text x="223.5" y="95.081" fill="#D9B8FF" font-family="sans-serif" font-size="14" textLength="70">: datetime</text><text x="180.5" y="121.378" fill="#D9B8FF" font-family="sans-serif" font-size="14" font-weight="bold" textLength="43">ctime</text><text x="223.5" y="121.378" fill="#D9B8FF" font-family="sans-serif" font-size="14" textLength="70">: datetime</text><text x="180.5" y="147.675" fill="#D9B8FF" font-family="sans-serif" font-size="14" font-weight="bold" textLength="14">id</text><text x="194.5" y="147.675" fill="#D9B8FF" font-family="sans-serif" font-size="14" textLength="48">: string</text><text x="180.5" y="173.972" fill="#D9B8FF" font-family="sans-serif" font-size="14" font-weight="bold" textLength="33">kind</text><text x="213.5" y="173.972" fill="#D9B8FF" font-family="sans-serif" font-size="14" textLength="48">: string</text><text x="180.5" y="200.269" fill="#D9B8FF" font-family="sans-serif" font-size="14" font-weight="bold" textLength="90">last_access</text><text x="270.5" y="200.269" fill="#D9B8FF" font-family="sans-serif" font-size="14" textLength="66">: duration</text><text x="180.5" y="226.565" fill="#D9B8FF" font-family="sans-serif" font-size="14" font-weight="bold" textLength="90">last_update</text><text x="270.5" y="226.565" fill="#D9B8FF" font-family="sans-serif" font-size="14" textLength="66">: duration</text><text x="180.5" y="252.862" fill="#D9B8FF" font-family="sans-serif" font-size="14" font-weight="bold" textLength="48">mtime</text><text x="228.5" y="252.862" fill="#D9B8FF" font-family="sans-serif" font-size="14" textLength="70">: datetime</text><text x="180.5" y="279.159" fill="#D9B8FF" font-family="sans-serif" font-size="14" font-weight="bold" textLength="43">name</text><text x="223.5" y="279.159" fill="#D9B8FF" font-family="sans-serif" font-size="14" textLength="48">: string</text><text x="180.5" y="305.456" fill="#D9B8FF" font-family="sans-serif" font-size="14" font-weight="bold" textLength="34">tags</text><text x="214.5" y="305.456" fill="#D9B8FF" font-family="sans-serif" font-size="14" textLength="171">: dictionary[string, string]</text><g fill="none"><path d="M118.028 495.577c11.92 30.52 28.532 73.083 40.462 103.643" style="stroke:#ffaf37;stroke-width:2"/><path d="m111.48 478.81.96 18.95 11.177-4.366z" style="stroke:#ffaf37;stroke-width:2"/></g><path fill="none" d="M258.212 493.3 180.16 599.22m88.73-120.41-15.508 10.931 9.66 7.119zM283 335.85v102.83m0-120.83-6 18h12z" style="stroke:#ffaf37;stroke-width:2"/></svg>
